Newaita-dark/apps/16/color-pick.svg

<?xml version="1.0" encoding="UTF-8"?>
<svg xmlns="http://www.w3.org/2000/svg" xmlns:xlink="http://www.w3.org/1999/xlink" width="16pt" height="16pt" viewBox="0 0 16 16" version="1.1">
<defs>
<radialGradient id="radial0" gradientUnits="userSpaceOnUse" cx="450.908936" cy="189.579361" fx="450.908936" fy="189.579361" r="21.166656" gradientTransform="matrix(0.0000000870852,-0.0390662,-0.0703192,-0.0000000507693,24.32883,31.797665)">
<stop offset="0" style="stop-color:rgb(0%,0%,0%);stop-opacity:0.313725;"/>
<stop offset="0.222222" style="stop-color:rgb(0%,0%,0%);stop-opacity:0.27451;"/>
<stop offset="1" style="stop-color:rgb(0%,0%,0%);stop-opacity:0;"/>
</radialGradient>
<radialGradient id="radial1" gradientUnits="userSpaceOnUse" cx="450.908936" cy="189.579361" fx="450.908936" fy="189.579361" r="21.166656" gradientTransform="matrix(-0.0000000870852,0.0390662,0.0703192,0.0000000507693,-6.385059,-3.763741)">
<stop offset="0" style="stop-color:rgb(0%,0%,0%);stop-opacity:0.313725;"/>
<stop offset="0.222222" style="stop-color:rgb(0%,0%,0%);stop-opacity:0.27451;"/>
<stop offset="1" style="stop-color:rgb(0%,0%,0%);stop-opacity:0;"/>
</radialGradient>
<radialGradient id="radial2" gradientUnits="userSpaceOnUse" cx="450.908936" cy="189.579361" fx="450.908936" fy="189.579361" r="21.166656" gradientTransform="matrix(-0.0000000870852,-0.0390662,0.0703192,-0.0000000507693,-6.385059,31.797665)">
<stop offset="0" style="stop-color:rgb(0%,0%,0%);stop-opacity:0.313725;"/>
<stop offset="0.222222" style="stop-color:rgb(0%,0%,0%);stop-opacity:0.27451;"/>
<stop offset="1" style="stop-color:rgb(0%,0%,0%);stop-opacity:0;"/>
</radialGradient>
<radialGradient id="radial3" gradientUnits="userSpaceOnUse" cx="450.908936" cy="189.579361" fx="450.908936" fy="189.579361" r="21.166656" gradientTransform="matrix(0.0000000870852,0.0390662,-0.0703192,0.0000000507693,24.32883,-3.763741)">
<stop offset="0" style="stop-color:rgb(0%,0%,0%);stop-opacity:0.313725;"/>
<stop offset="0.222222" style="stop-color:rgb(0%,0%,0%);stop-opacity:0.27451;"/>
<stop offset="1" style="stop-color:rgb(0%,0%,0%);stop-opacity:0;"/>
</radialGradient>
<linearGradient id="linear0" gradientUnits="userSpaceOnUse" x1="255.323059" y1="233.5" x2="255.323044" y2="254.666656" gradientTransform="matrix(0.00668003,0,0,0.031253,6.232693,6.719392)">
<stop offset="0" style="stop-color:rgb(0%,0%,0%);stop-opacity:0.27451;"/>
<stop offset="1" style="stop-color:rgb(0%,0%,0%);stop-opacity:0;"/>
</linearGradient>
<linearGradient id="linear1" gradientUnits="userSpaceOnUse" x1="254" y1="-168.666672" x2="254" y2="32.416664" >
<stop offset="0" style="stop-color:rgb(100%,83.529412%,30.980392%);stop-opacity:1;"/>
<stop offset="1" style="stop-color:rgb(100%,79.215686%,15.686275%);stop-opacity:1;"/>
</linearGradient>
<linearGradient id="linear2" gradientUnits="userSpaceOnUse" x1="254" y1="-168.666672" x2="254" y2="32.416668" gradientTransform="matrix(3.779528,0,0,3.779528,0,812.59845)">
<stop offset="0" style="stop-color:rgb(39.215686%,70.980392%,96.470588%);stop-opacity:1;"/>
<stop offset="1" style="stop-color:rgb(25.882353%,64.705882%,96.078431%);stop-opacity:1;"/>
</linearGradient>
<linearGradient id="linear3" gradientUnits="userSpaceOnUse" x1="254" y1="-168.666672" x2="254" y2="32.41642" gradientTransform="matrix(1,0,0,-1,0,64.833084)">
<stop offset="0" style="stop-color:rgb(40%,73.333333%,41.568627%);stop-opacity:1;"/>
<stop offset="1" style="stop-color:rgb(50.588235%,78.039216%,51.764706%);stop-opacity:1;"/>
</linearGradient>
<linearGradient id="linear4" gradientUnits="userSpaceOnUse" x1="254" y1="-168.666672" x2="254" y2="32.41642" gradientTransform="matrix(-1,0.000000000000000122,-0.000000000000000122,-1,508,64.833084)">
<stop offset="0" style="stop-color:rgb(93.72549%,32.54902%,31.372549%);stop-opacity:1;"/>
<stop offset="1" style="stop-color:rgb(89.803922%,45.098039%,45.098039%);stop-opacity:1;"/>
</linearGradient>
<linearGradient id="linear5" gradientUnits="userSpaceOnUse" x1="1320" y1="1695.118164" x2="1320" y2="975.118103" gradientTransform="matrix(0.00826902,0,0,0.00826902,0,0)">
<stop offset="0" style="stop-color:rgb(69.019608%,74.509804%,77.254902%);stop-opacity:1;"/>
<stop offset="1" style="stop-color:rgb(81.176471%,84.705882%,86.27451%);stop-opacity:1;"/>
</linearGradient>
<linearGradient id="linear6" gradientUnits="userSpaceOnUse" x1="243.416672" y1="-20.5" x2="243.416672" y2="85.333336" >
<stop offset="0" style="stop-color:rgb(69.019608%,74.509804%,77.254902%);stop-opacity:1;"/>
<stop offset="1" style="stop-color:rgb(81.176471%,84.705882%,86.27451%);stop-opacity:1;"/>
</linearGradient>
</defs>
<g id="surface1">
<path style=" stroke:none;fill-rule:nonzero;fill:url(#radial0);" d="M 11.164062 14.015625 L 12.484375 14.015625 L 12.484375 13.355469 L 11.164062 13.355469 Z M 11.164062 14.015625 "/>
<path style=" stroke:none;fill-rule:nonzero;fill:url(#radial1);" d="M 6.78125 14.015625 L 5.457031 14.015625 L 5.457031 14.679688 L 6.78125 14.679688 Z M 6.78125 14.015625 "/>
<path style=" stroke:none;fill-rule:nonzero;fill:url(#radial2);" d="M 6.78125 14.015625 L 5.457031 14.015625 L 5.457031 13.355469 L 6.78125 13.355469 Z M 6.78125 14.015625 "/>
<path style=" stroke:none;fill-rule:nonzero;fill:url(#radial3);" d="M 11.164062 14.015625 L 12.484375 14.015625 L 12.484375 14.679688 L 11.164062 14.679688 Z M 11.164062 14.015625 "/>
<path style=" stroke:none;fill-rule:nonzero;fill:url(#linear0);" d="M 6.78125 13.6875 L 11.164062 13.6875 L 11.164062 14.679688 L 6.78125 14.679688 Z M 6.78125 13.6875 "/>
<path style="fill-rule:nonzero;fill:url(#linear1);stroke-width:3;stroke-linecap:round;stroke-linejoin:miter;stroke:rgb(20%,20%,20%);stroke-opacity:1;stroke-miterlimit:4;" d="M 253.975747 -168.629428 C 365.090136 -168.629428 455.081542 -78.638022 455.081542 32.476367 C 455.081542 143.465768 365.090136 233.457174 253.975747 233.457174 C 142.986345 233.457174 52.869951 143.465768 52.869951 32.476367 C 52.869951 -78.638022 142.986345 -168.629428 253.975747 -168.629428 Z M 253.975747 -168.629428 " transform="matrix(0.031253,0,0,0.031253,0,6.719392)"/>
<path style="fill-rule:nonzero;fill:url(#linear2);stroke-width:11.338583;stroke-linecap:round;stroke-linejoin:miter;stroke:rgb(20%,20%,20%);stroke-opacity:1;stroke-miterlimit:4;" d="M 959.908384 175.258863 C 539.003674 175.258863 199.823448 513.966694 199.823448 935.343799 L 959.908384 935.343799 Z M 959.908384 175.258863 " transform="matrix(0.00826902,0,0,0.00826902,0,0)"/>
<path style="fill-rule:nonzero;fill:url(#linear3);stroke-width:3;stroke-linecap:round;stroke-linejoin:miter;stroke:rgb(20%,20%,20%);stroke-opacity:1;stroke-miterlimit:4;" d="M 253.975747 233.457174 C 142.611381 233.457174 52.869951 143.840732 52.869951 32.476367 L 253.975747 32.476367 Z M 253.975747 233.457174 " transform="matrix(0.031253,0,0,0.031253,0,6.719392)"/>
<path style="fill-rule:nonzero;fill:url(#linear4);stroke-width:3;stroke-linecap:round;stroke-linejoin:miter;stroke:rgb(20%,20%,20%);stroke-opacity:1;stroke-miterlimit:4;" d="M 253.975747 233.457174 C 365.340112 233.457174 455.081542 143.840732 455.081542 32.476367 L 253.975747 32.476367 Z M 253.975747 233.457174 " transform="matrix(0.031253,0,0,0.031253,0,6.719392)"/>
<path style=" stroke:none;fill-rule:nonzero;fill:rgb(0%,0%,0%);fill-opacity:0.196078;" d="M 7.9375 14.015625 C 4.457031 14.015625 1.652344 11.214844 1.652344 7.734375 C 1.652344 7.710938 1.652344 7.691406 1.652344 7.671875 C 1.6875 11.125 4.476562 13.894531 7.9375 13.894531 C 11.398438 13.894531 14.191406 11.125 14.222656 7.671875 C 14.222656 7.691406 14.222656 7.710938 14.222656 7.734375 C 14.222656 11.214844 11.417969 14.015625 7.9375 14.015625 Z M 7.9375 14.015625 "/>
<path style=" stroke:none;fill-rule:nonzero;fill:rgb(100%,100%,100%);fill-opacity:0.392157;" d="M 7.9375 1.449219 C 4.457031 1.449219 1.652344 4.25 1.652344 7.734375 C 1.652344 7.753906 1.652344 7.773438 1.652344 7.792969 C 1.6875 4.339844 4.476562 1.570312 7.9375 1.570312 C 11.398438 1.570312 14.191406 4.339844 14.222656 7.792969 C 14.222656 7.773438 14.222656 7.753906 14.222656 7.734375 C 14.222656 4.25 11.417969 1.449219 7.9375 1.449219 Z M 7.9375 1.449219 "/>
<path style=" stroke:none;fill-rule:nonzero;fill:rgb(12.941177%,12.941177%,12.941177%);fill-opacity:1;" d="M 7.9375 1.402344 C 4.429688 1.402344 1.605469 4.226562 1.605469 7.734375 C 1.605469 11.238281 4.429688 14.0625 7.9375 14.0625 C 11.445312 14.0625 14.269531 11.238281 14.269531 7.734375 C 14.269531 4.226562 11.445312 1.402344 7.9375 1.402344 Z M 7.9375 1.496094 C 11.394531 1.496094 14.175781 4.277344 14.175781 7.734375 C 14.175781 11.1875 11.394531 13.96875 7.9375 13.96875 C 4.480469 13.96875 1.699219 11.1875 1.699219 7.734375 C 1.699219 4.277344 4.480469 1.496094 7.9375 1.496094 Z M 7.9375 1.496094 "/>
<path style=" stroke:none;fill-rule:nonzero;fill:url(#linear5);" d="M 10.914062 8.0625 C 9.921875 8.726562 8.929688 10.992188 8.929688 12.03125 C 8.929688 13.132812 9.816406 14.015625 10.914062 14.015625 C 12.015625 14.015625 12.898438 13.132812 12.898438 12.03125 C 12.894531 10.882812 11.90625 8.726562 10.914062 8.0625 Z M 10.914062 8.0625 "/>
<path style=" stroke:none;fill-rule:nonzero;fill:rgb(100%,100%,100%);fill-opacity:0.392157;" d="M 10.914062 8.0625 C 9.921875 8.726562 8.929688 10.992188 8.929688 12.03125 C 8.929688 12.0625 8.929688 12.089844 8.933594 12.117188 C 8.980469 11.046875 9.945312 8.875 10.914062 8.230469 C 11.886719 8.875 12.851562 10.953125 12.898438 12.121094 C 12.898438 12.089844 12.898438 12.0625 12.898438 12.03125 C 12.894531 10.882812 11.90625 8.726562 10.914062 8.0625 Z M 10.914062 8.0625 "/>
<path style=" stroke:none;fill-rule:nonzero;fill:rgb(0%,0%,0%);fill-opacity:0.235294;" d="M 8.933594 11.953125 C 8.929688 11.980469 8.929688 12.007812 8.929688 12.03125 C 8.929688 13.132812 9.816406 14.015625 10.914062 14.015625 C 12.015625 14.015625 12.898438 13.132812 12.898438 12.03125 C 12.898438 12.007812 12.898438 11.980469 12.898438 11.957031 C 12.851562 13.015625 11.984375 13.855469 10.914062 13.855469 C 9.84375 13.855469 8.976562 13.015625 8.933594 11.953125 Z M 8.933594 11.953125 "/>
<path style=" stroke:none;fill-rule:nonzero;fill:rgb(12.941177%,12.941177%,12.941177%);fill-opacity:1;" d="M 10.914062 8.015625 C 10.90625 8.015625 10.898438 8.019531 10.890625 8.023438 C 10.378906 8.363281 9.882812 9.101562 9.507812 9.886719 C 9.132812 10.667969 8.882812 11.496094 8.882812 12.03125 C 8.882812 13.15625 9.789062 14.0625 10.914062 14.0625 C 12.039062 14.0625 12.945312 13.15625 12.945312 12.03125 C 12.945312 11.445312 12.691406 10.613281 12.320312 9.84375 C 11.945312 9.074219 11.449219 8.363281 10.941406 8.023438 C 10.933594 8.019531 10.925781 8.015625 10.914062 8.015625 Z M 10.914062 8.121094 C 11.390625 8.449219 11.871094 9.136719 12.234375 9.886719 C 12.605469 10.648438 12.851562 11.472656 12.851562 12.03125 C 12.851562 13.105469 11.988281 13.96875 10.914062 13.96875 C 9.839844 13.96875 8.976562 13.105469 8.976562 12.03125 C 8.976562 11.527344 9.222656 10.699219 9.59375 9.925781 C 9.957031 9.164062 10.441406 8.449219 10.914062 8.121094 Z M 10.914062 8.121094 "/>
<path style="fill-rule:nonzero;fill:url(#linear6);stroke-width:3;stroke-linecap:square;stroke-linejoin:round;stroke:rgb(12.941177%,12.941177%,12.941177%);stroke-opacity:1;stroke-miterlimit:4;" d="M 253.975747 -20.518572 C 283.222954 -20.518572 306.970686 3.22916 306.970686 32.476367 C 306.970686 61.598586 283.222954 85.346318 253.975747 85.346318 C 224.728539 85.346318 201.105795 61.598586 201.105795 32.476367 C 201.105795 3.22916 224.728539 -20.518572 253.975747 -20.518572 Z M 253.975747 -20.518572 " transform="matrix(0.031253,0,0,0.031253,0,6.719392)"/>
</g>
</svg>

<svg xmlns="http://www.w3.org/2000/svg" width="16pt" height="16pt" viewBox="0 0 16 16"><defs><radialGradient id="a" gradientUnits="userSpaceOnUse" cx="450.909" cy="189.579" fx="450.909" fy="189.579" r="21.167" gradientTransform="matrix(0 -.03907 -.07032 0 24.329 31.798)"><stop offset="0" stop-opacity=".314"/><stop offset=".222" stop-opacity=".275"/><stop offset="1" stop-opacity="0"/></radialGradient><radialGradient id="b" gradientUnits="userSpaceOnUse" cx="450.909" cy="189.579" fx="450.909" fy="189.579" r="21.167" gradientTransform="matrix(0 .03907 .07032 0 -6.385 -3.764)"><stop offset="0" stop-opacity=".314"/><stop offset=".222" stop-opacity=".275"/><stop offset="1" stop-opacity="0"/></radialGradient><radialGradient id="c" gradientUnits="userSpaceOnUse" cx="450.909" cy="189.579" fx="450.909" fy="189.579" r="21.167" gradientTransform="matrix(0 -.03907 .07032 0 -6.385 31.798)"><stop offset="0" stop-opacity=".314"/><stop offset=".222" stop-opacity=".275"/><stop offset="1" stop-opacity="0"/></radialGradient><radialGradient id="d" gradientUnits="userSpaceOnUse" cx="450.909" cy="189.579" fx="450.909" fy="189.579" r="21.167" gradientTransform="matrix(0 .03907 -.07032 0 24.329 -3.764)"><stop offset="0" stop-opacity=".314"/><stop offset=".222" stop-opacity=".275"/><stop offset="1" stop-opacity="0"/></radialGradient><linearGradient id="e" gradientUnits="userSpaceOnUse" x1="255.323" y1="233.5" x2="255.323" y2="254.667" gradientTransform="matrix(.00668 0 0 .03125 6.233 6.72)"><stop offset="0" stop-opacity=".275"/><stop offset="1" stop-opacity="0"/></linearGradient><linearGradient id="f" gradientUnits="userSpaceOnUse" x1="254" y1="-168.667" x2="254" y2="32.417"><stop offset="0" stop-color="#ffd54f"/><stop offset="1" stop-color="#ffca28"/></linearGradient><linearGradient id="g" gradientUnits="userSpaceOnUse" x1="254" y1="-168.667" x2="254" y2="32.417" gradientTransform="matrix(3.77953 0 0 3.77953 0 812.598)"><stop offset="0" stop-color="#64b5f6"/><stop offset="1" stop-color="#42a5f5"/></linearGradient><linearGradient id="h" gradientUnits="userSpaceOnUse" x1="254" y1="-168.667" x2="254" y2="32.416" gradientTransform="matrix(1 0 0 -1 0 64.833)"><stop offset="0" stop-color="#66bb6a"/><stop offset="1" stop-color="#81c784"/></linearGradient><linearGradient id="i" gradientUnits="userSpaceOnUse" x1="254" y1="-168.667" x2="254" y2="32.416" gradientTransform="rotate(180 254 32.417)"><stop offset="0" stop-color="#ef5350"/><stop offset="1" stop-color="#e57373"/></linearGradient><linearGradient id="j" gradientUnits="userSpaceOnUse" x1="1320" y1="1695.118" x2="1320" y2="975.118" gradientTransform="rotate(.882) scale(.00827)"><stop offset="0" stop-color="#b0bec5"/><stop offset="1" stop-color="#cfd8dc"/></linearGradient><linearGradient id="k" gradientUnits="userSpaceOnUse" x1="243.417" y1="-20.5" x2="243.417" y2="85.333"><stop offset="0" stop-color="#b0bec5"/><stop offset="1" stop-color="#cfd8dc"/></linearGradient></defs><path d="M11.164 14.016h1.32v-.66h-1.32zm0 0" fill="url(#a)"/><path d="M6.781 14.016H5.457v.664h1.324zm0 0" fill="url(#b)"/><path d="M6.781 14.016H5.457v-.66h1.324zm0 0" fill="url(#c)"/><path d="M11.164 14.016h1.32v.664h-1.32zm0 0" fill="url(#d)"/><path d="M6.781 13.688h4.383v.992H6.781zm0 0" fill="url(#e)"/><path d="M253.976-168.63c111.114 0 201.106 89.992 201.106 201.106 0 110.99-89.992 200.981-201.106 200.981-110.99 0-201.106-89.991-201.106-200.98 0-111.115 90.116-201.106 201.106-201.106zm0 0" transform="matrix(.03125 0 0 .03125 0 6.72)" fill="url(#f)" stroke-width="3" stroke-linecap="round" stroke="#333"/><path d="M959.908 175.259c-420.904 0-760.085 338.708-760.085 760.085h760.085zm0 0" transform="rotate(.882) scale(.00827)" fill="url(#g)" stroke-width="11.339" stroke-linecap="round" stroke="#333"/><path d="M253.976 233.457c-111.365 0-201.106-89.616-201.106-200.98h201.106zm0 0" transform="matrix(.03125 0 0 .03125 0 6.72)" fill="url(#h)" stroke-width="3" stroke-linecap="round" stroke="#333"/><path d="M253.976 233.457c111.364 0 201.106-89.616 201.106-200.98H253.976zm0 0" transform="matrix(.03125 0 0 .03125 0 6.72)" fill="url(#i)" stroke-width="3" stroke-linecap="round" stroke="#333"/><path d="M7.938 14.016a6.27 6.27 0 0 1-6.286-6.282v-.062a6.273 6.273 0 0 0 6.285 6.223 6.27 6.27 0 0 0 6.286-6.223v.062a6.27 6.27 0 0 1-6.286 6.282zm0 0" fill-opacity=".196"/><path d="M7.938 1.45a6.27 6.27 0 0 0-6.286 6.284v.059A6.273 6.273 0 0 1 7.937 1.57a6.27 6.27 0 0 1 6.286 6.223v-.059A6.27 6.27 0 0 0 7.937 1.45zm0 0" fill="#fff" fill-opacity=".392"/><path d="M7.938 1.402a6.318 6.318 0 0 0-6.333 6.332 6.318 6.318 0 0 0 6.332 6.329 6.318 6.318 0 0 0 6.333-6.329 6.318 6.318 0 0 0-6.332-6.332zm0 .094a6.223 6.223 0 0 1 6.238 6.238 6.222 6.222 0 0 1-6.239 6.235A6.222 6.222 0 0 1 1.7 7.734a6.223 6.223 0 0 1 6.239-6.238zm0 0" fill="#212121"/><path d="M10.914 8.063c-.992.664-1.984 2.93-1.984 3.968a1.98 1.98 0 0 0 1.984 1.985 1.977 1.977 0 0 0 1.984-1.985c-.003-1.148-.992-3.304-1.984-3.969zm0 0" fill="url(#j)"/><path d="M10.914 8.063c-.992.664-1.984 2.93-1.984 3.968 0 .031 0 .059.004.086.046-1.07 1.011-3.242 1.98-3.887.973.645 1.938 2.723 1.984 3.891v-.09c-.003-1.148-.992-3.304-1.984-3.969zm0 0" fill="#fff" fill-opacity=".392"/><path d="M8.934 11.953c-.004.027-.004.055-.004.078a1.98 1.98 0 0 0 1.984 1.985 1.977 1.977 0 0 0 1.984-1.985v-.074a1.983 1.983 0 0 1-1.984 1.898c-1.07 0-1.937-.84-1.98-1.902zm0 0" fill-opacity=".235"/><path d="M10.914 8.016a.056.056 0 0 0-.023.007c-.512.34-1.008 1.079-1.383 1.864-.375.781-.625 1.61-.625 2.144 0 1.125.906 2.031 2.031 2.031a2.027 2.027 0 0 0 2.031-2.03c0-.587-.254-1.419-.625-2.188-.375-.77-.87-1.48-1.379-1.82a.056.056 0 0 0-.027-.008zm0 .105c.477.328.957 1.016 1.32 1.766.371.761.618 1.586.618 2.144a1.932 1.932 0 0 1-1.938 1.938 1.932 1.932 0 0 1-1.937-1.938c0-.504.246-1.332.617-2.105.363-.762.847-1.477 1.32-1.805zm0 0" fill="#212121"/><path d="M253.976-20.519c29.247 0 52.995 23.748 52.995 52.995 0 29.123-23.748 52.87-52.995 52.87-29.247 0-52.87-23.747-52.87-52.87 0-29.247 23.623-52.995 52.87-52.995zm0 0" transform="matrix(.03125 0 0 .03125 0 6.72)" fill="url(#k)" stroke-width="3" stroke-linecap="square" stroke-linejoin="round" stroke="#212121"/></svg>
